X: 1
T: Frost's On The Pumpkin And Fodder's In The Shock, The
M: 4/4
L: 1/8
R: barndance
K: Gmaj
|: gf | ec2B c2ef | gBBA B2Bd | edBc dBAF | AG2F G2 :|
|: GA | B2BA B2AB | cBAG A2Bd | edBc dBAF | AG2F G2 :|
